modules/hawcons-filled/icons/icon-117-lock-stripes.svg

<?xml version="1.0" encoding="UTF-8" standalone="no"?>
<svg width="32px" height="32px" viewBox="0 0 32 32" version="1.1" xmlns="http://www.w3.org/2000/svg" xmlns:xlink="http://www.w3.org/1999/xlink" xmlns:sketch="http://www.bohemiancoding.com/sketch/ns">
    <!-- Generator: Sketch 3.0.3 (7891) - http://www.bohemiancoding.com/sketch -->
    <title>icon 117 lock stripes</title>
    <desc>Created with Sketch.</desc>
    <defs></defs>
    <g id="Page-1" stroke="none" stroke-width="1" fill="none" fill-rule="evenodd" sketch:type="MSPage">
        <g id="icon-117-lock-stripes" sketch:type="MSArtboardGroup" fill="#929292">
            <path d="M27,26 L27,24 L27,24 L25.25,24 L23.75,26 L27,26 L27,26 Z M26.9999856,27 C26.994909,28.6684146 25.6497804,30 23.991212,30 L9.00878799,30 C7.34875264,30 6.00511824,28.65773 6.00001459,27 L26.9999866,27 L26.9999856,27 Z M6,26 L6,24 L9.25,24 L7.75,26 L6,26 L6,26 Z M8.75,26 L10.25,24 L12.25,24 L10.75,26 L8.75,26 L8.75,26 Z M11.75,26 L13.25,24 L15.25,24 L13.75,26 L11.75,26 L11.75,26 Z M14.75,26 L16.25,24 L18.25,24 L16.75,26 L14.75,26 L14.75,26 Z M17.75,26 L19.25,24 L21.25,24 L19.75,26 L17.75,26 L17.75,26 Z M20.75,26 L22.25,24 L24.25,24 L22.75,26 L20.75,26 L20.75,26 Z M27,23 L27,17.0094776 C27,15.3503174 25.6591471,14.0047488 24,14.0000125 L24,10.499235 C24,6.35752188 20.6337072,3 16.5,3 C12.3578644,3 9,6.35670485 9,10.499235 L9,14.0000125 L9,14.0000125 C7.34233349,14.0047152 6,15.339581 6,17.0094776 L6,23 L27,23 L27,23 Z M12,14 L12,10.5008537 C12,8.0092478 14.0147186,6 16.5,6 C18.9802243,6 21,8.01510082 21,10.5008537 L21,14 L12,14 L12,14 L12,14 Z" id="lock-stripes" sketch:type="MSShapeGroup"></path>
        </g>
    </g>
</svg>

<svg width="32" height="32" viewBox="0 0 32 32" xmlns="http://www.w3.org/2000/svg"><path d="M27 26v-2h-1.75l-1.5 2H27zm0 1a3.002 3.002 0 0 1-3.009 3H9.01A3.008 3.008 0 0 1 6 27h21zM6 26v-2h3.25l-1.5 2H6zm2.75 0l1.5-2h2l-1.5 2h-2zm3 0l1.5-2h2l-1.5 2h-2zm3 0l1.5-2h2l-1.5 2h-2zm3 0l1.5-2h2l-1.5 2h-2zm3 0l1.5-2h2l-1.5 2h-2zM27 23v-5.99c0-1.66-1.34-3.005-3-3.01v-3.5a7.5 7.5 0 1 0-15 0V14c-1.658.005-3 1.34-3 3.01V23h21zm-15-9v-3.5C12 8.01 14.015 6 16.5 6c2.48 0 4.5 2.015 4.5 4.5V14h-9z" fill="#929292" fill-rule="evenodd"/></svg>
